X:1
T:Morgan (Gould), 10.10.10.4
T:Morgan (Gould), 10.10.10.4
T:Arranged from John Edgar Gould, 1887
T:Public Domain Courtesy of the Cyber Hymnal™
C:Arranged from John Edgar Gould, 1887
Z:Public Domain
Z:Courtesy of the Cyber Hymnal™
%%score ( 1 2 ) ( 3 4 )
L:1/8
Q:1/4=95
M:2/4
K:Ab
V:1 treble 
V:2 treble 
V:3 bass 
V:4 bass 
V:1
 [CE] | [CE]2 [CA]2 | [CA]2 [Ec]2 | [Ec][Ec] [Ec][DB] | [CA]3 E | [DF]2 [FA]2 | [Fd]2 [DF]2 | %7
 [DF][DF] [DF][CE] | [CE]3 E | E2 [EG]2 | [GB]2 [Gd]2 | [Ec][Ec] [Ec][DB] | [CA]4 (E2 D2) | %13
 ([A,C]2 [CE]2) | (A3 B) | [CA]3 |] %16
V:2
 x | x4 | x4 | x4 | x3 E | x4 | x4 | x4 | x3 E | E2 x2 | x4 | x4 | x4 B,4 | x4 | D4 | x3 |] %16
V:3
 [A,,A,] | [A,,A,]2 [A,,E,]2 | [A,,E,]2 [A,,A,]2 | [E,A,][E,A,] [E,A,][E,G,] | [A,,A,]3 [C,A,] | %5
 [D,A,]2 [D,A,]2 | [D,A,]2 [F,A,]2 | [D,A,][D,A,] [D,A,]A, | A,3 E, | [E,G,]2 [E,B,]2 | %10
 [E,D]2 [E,G,]2 | [A,,A,][A,,A,] [A,,A,][A,,E,] | [A,,E,]4 [G,,E,]4 | [A,,E,]4 | [A,,F,]4 | %15
 [A,,E,]3 |] %16
V:4
 x | x4 | x4 | x4 | x4 | x4 | x4 | x3 A, | A,3 E, | x4 | x4 | x4 | x8 | x4 | x4 | x3 |] %16

